themes/CarbonLDP/source/assets/images/rest-api-object-model.svg

<svg width="1348" height="618" viewBox="0 0 1348 618" xmlns="http://www.w3.org/2000/svg" xmlns:xlink="http://www.w3.org/1999/xlink">
    <title>REST Resource Model</title>
    <defs>
        <linearGradient x1="50%" y1="0%" x2="50%" y2="100%" id="u">
            <stop stop-color="#FFF" offset="0%"/>
            <stop stop-color="#DFDFDF" offset="100%"/>
        </linearGradient>
        <rect id="a" x="473" width="166" height="43" rx="8"/>
        <mask id="t" x="0" y="0" width="166" height="43" fill="#fff">
            <use xlink:href="#a"/>
        </mask>
        <rect id="b" x="792" y="31" width="166" height="43" rx="8"/>
        <mask id="v" x="0" y="0" width="166" height="43" fill="#fff">
            <use xlink:href="#b"/>
        </mask>
        <rect id="c" x="980" y="154" width="166" height="43" rx="8"/>
        <mask id="w" x="0" y="0" width="166" height="43" fill="#fff">
            <use xlink:href="#c"/>
        </mask>
        <rect id="d" x="980" y="356" width="166" height="43" rx="8"/>
        <mask id="x" x="0" y="0" width="166" height="43" fill="#fff">
            <use xlink:href="#d"/>
        </mask>
        <rect id="e" x="1181" y="356" width="166" height="43" rx="8"/>
        <mask id="y" x="0" y="0" width="166" height="43" fill="#fff">
            <use xlink:href="#e"/>
        </mask>
        <rect id="f" x="885" y="261" width="166" height="43" rx="8"/>
        <mask id="z" x="0" y="0" width="166" height="43" fill="#fff">
            <use xlink:href="#f"/>
        </mask>
        <rect id="g" x="186" y="155" width="166" height="43" rx="8"/>
        <mask id="A" x="0" y="0" width="166" height="43" fill="#fff">
            <use xlink:href="#g"/>
        </mask>
        <rect id="h" x="699" y="445" width="166" height="43" rx="8"/>
        <mask id="B" x="0" y="0" width="166" height="43" fill="#fff">
            <use xlink:href="#h"/>
        </mask>
        <rect id="i" x="572" y="155" width="166" height="43" rx="8"/>
        <mask id="C" x="0" y="0" width="166" height="43" fill="#fff">
            <use xlink:href="#i"/>
        </mask>
        <rect id="j" x="572" y="268" width="166" height="43" rx="8"/>
        <mask id="D" x="0" y="0" width="166" height="43" fill="#fff">
            <use xlink:href="#j"/>
        </mask>
        <rect id="k" y="155" width="166" height="43" rx="8"/>
        <mask id="E" x="0" y="0" width="166" height="43" fill="#fff">
            <use xlink:href="#k"/>
        </mask>
        <rect id="l" x="770" y="154" width="166" height="43" rx="8"/>
        <mask id="F" x="0" y="0" width="166" height="43" fill="#fff">
            <use xlink:href="#l"/>
        </mask>
        <rect id="m" x="881" y="442" width="166" height="43" rx="8"/>
        <mask id="G" x="0" y="0" width="166" height="43" fill="#fff">
            <use xlink:href="#m"/>
        </mask>
        <rect id="n" x="372" y="155" width="166" height="43" rx="8"/>
        <mask id="H" x="0" y="0" width="166" height="43" fill="#fff">
            <use xlink:href="#n"/>
        </mask>
        <rect id="o" x="1075" y="261" width="166" height="43" rx="8"/>
        <mask id="I" x="0" y="0" width="166" height="43" fill="#fff">
            <use xlink:href="#o"/>
        </mask>
        <rect id="p" x="699" y="575" width="166" height="43" rx="8"/>
        <mask id="J" x="0" y="0" width="166" height="43" fill="#fff">
            <use xlink:href="#p"/>
        </mask>
        <rect id="q" x="881" y="575" width="166" height="43" rx="8"/>
        <mask id="K" x="0" y="0" width="166" height="43" fill="#fff">
            <use xlink:href="#q"/>
        </mask>
        <rect id="r" x="1072" y="575" width="182" height="43" rx="8"/>
        <mask id="L" x="0" y="0" width="182" height="43" fill="#fff">
            <use xlink:href="#r"/>
        </mask>
        <rect id="s" x="186" y="265" width="166" height="43" rx="8"/>
        <mask id="M" x="0" y="0" width="166" height="43" fill="#fff">
            <use xlink:href="#s"/>
        </mask>
    </defs>
    <g fill="none" fill-rule="evenodd">
        <path d="M967.5 466.5l185 127M967.5 466.5l-187 130M266.5 177.5v124M1158.5 284.5l-93 93M1060.5 179.5l-94 104M1060.5 179.5l98 103M1158.5 284.5l104 91M553.5 22.5l-470 147M553.5 22.5l-96 153M553.5 22.5l97 153M553.5 22.5l301 150M553.5 22.5l502 147M553.5 22.5l-286 147M653.5 179.5v111M963.5 289.5v307M963.5 289.5l-181 175" stroke="#979797" stroke-linecap="square"/>
        <use stroke="#979797" mask="url(#t)" stroke-width="2" fill="url(#u)" xlink:href="#a"/>
        <use stroke="#979797" mask="url(#v)" stroke-width="2" fill="url(#u)" xlink:href="#b"/>
        <use stroke="#979797" mask="url(#w)" stroke-width="2" fill="url(#u)" xlink:href="#c"/>
        <use stroke="#979797" mask="url(#x)" stroke-width="2" fill="url(#u)" xlink:href="#d"/>
        <g stroke="#979797">
            <use mask="url(#y)" stroke-width="2" fill="url(#u)" xlink:href="#e"/>
            <use xlink:href="#e"/>
        </g>
        <use stroke="#979797" mask="url(#z)" stroke-width="2" fill="url(#u)" xlink:href="#f"/>
        <use stroke="#979797" mask="url(#A)" stroke-width="2" fill="url(#u)" xlink:href="#g"/>
        <use stroke="#979797" mask="url(#B)" stroke-width="2" fill="url(#u)" xlink:href="#h"/>
        <use stroke="#979797" mask="url(#C)" stroke-width="2" fill="url(#u)" xlink:href="#i"/>
        <use stroke="#979797" mask="url(#D)" stroke-width="2" fill="url(#u)" xlink:href="#j"/>
        <use stroke="#979797" mask="url(#E)" stroke-width="2" fill="url(#u)" xlink:href="#k"/>
        <use stroke="#979797" mask="url(#F)" stroke-width="2" fill="url(#u)" xlink:href="#l"/>
        <use stroke="#979797" mask="url(#G)" stroke-width="2" fill="url(#u)" xlink:href="#m"/>
        <use stroke="#979797" mask="url(#H)" stroke-width="2" fill="url(#u)" xlink:href="#n"/>
        <text font-family="Helvetica" font-size="16" fill="#000">
            <tspan x="514.211" y="27">RDFSource</tspan>
        </text>
        <text font-family="Helvetica" font-size="16" fill="#000">
            <tspan x="816.977" y="58">AccessControlList</tspan>
        </text>
        <text font-family="Helvetica" font-size="16" fill="#000">
            <tspan x="1027.813" y="181">Container</tspan>
        </text>
        <text font-family="Helvetica" font-size="16" fill="#000">
            <tspan x="913.25" y="288">BasicContainer</tspan>
        </text>
        <text font-family="Helvetica" font-size="16" fill="#000">
            <tspan x="1007.422" y="383">DirectContainer</tspan>
        </text>
        <use stroke="#979797" mask="url(#I)" stroke-width="2" fill="url(#u)" xlink:href="#o"/>
        <text font-family="Helvetica" font-size="16" fill="#000">
            <tspan x="1114.48" y="288">AccessPoint</tspan>
        </text>
        <text font-family="Helvetica" font-size="16" fill="#7B7B7B">
            <tspan x="1203.078" y="383">IndirectContainer</tspan>
        </text>
        <text font-family="Helvetica" font-size="16" fill="#000">
            <tspan x="743.363" y="472">Application</tspan>
        </text>
        <text font-family="Helvetica" font-size="16" fill="#000">
            <tspan x="248.094" y="182">Agent</tspan>
        </text>
        <text font-family="Helvetica" font-size="16" fill="#000">
            <tspan x="424.813" y="182">AppRole</tspan>
        </text>
        <use stroke="#979797" mask="url(#J)" stroke-width="2" fill="url(#u)" xlink:href="#p"/>
        <use stroke="#979797" mask="url(#K)" stroke-width="2" fill="url(#u)" xlink:href="#q"/>
        <use stroke="#979797" mask="url(#L)" stroke-width="2" fill="url(#u)" xlink:href="#r"/>
        <text font-family="Helvetica" font-size="16" fill="#000">
            <tspan x="951.102" y="469">Job</tspan>
        </text>
        <text font-family="Helvetica" font-size="16" fill="#000">
            <tspan x="819.367" y="181">Execution</tspan>
        </text>
        <text font-family="Helvetica" font-size="16" fill="#000">
            <tspan x="42.039" y="182">LDAPServer</tspan>
        </text>
        <text font-family="Helvetica" font-size="16" fill="#000">
            <tspan x="42.039" y="182">LDAPServer</tspan>
        </text>
        <text font-family="Helvetica" font-size="16" fill="#000">
            <tspan x="584.301" y="182">RDFRepresentation</tspan>
        </text>
        <text font-family="Helvetica" font-size="16" fill="#000">
            <tspan x="628.316" y="295">Backup</tspan>
        </text>
        <use stroke="#979797" mask="url(#M)" stroke-width="2" fill="url(#u)" xlink:href="#s"/>
        <text font-family="Helvetica" font-size="16" fill="#000">
            <tspan x="227.285" y="292">LDAPAgent</tspan>
        </text>
        <text font-family="Helvetica" font-size="16" fill="#000">
            <tspan x="720.246" y="602">ImportBackupJob</tspan>
        </text>
        <text font-family="Helvetica" font-size="16" fill="#000">
            <tspan x="901.297" y="602">ExportBackupJob</tspan>
        </text>
        <text font-family="Helvetica" font-size="16" fill="#000">
            <tspan x="1082.215" y="601">ImportLDAPAgentsJob</tspan>
        </text>
    </g>
</svg>

<?xml version="1.0" encoding="UTF-8" standalone="no"?>
<svg width="1348px" height="618px" viewBox="0 0 1348 618" version="1.1" xmlns="http://www.w3.org/2000/svg" xmlns:xlink="http://www.w3.org/1999/xlink">
    <!-- Generator: Sketch 3.8.2 (29753) - http://www.bohemiancoding.com/sketch -->
    <title>REST Resource Model</title>
    <desc>Created with Sketch.</desc>
    <defs>
        <linearGradient x1="50%" y1="0%" x2="50%" y2="100%" id="linearGradient-1">
            <stop stop-color="#FFFFFF" offset="0%"></stop>
            <stop stop-color="#DFDFDF" offset="100%"></stop>
        </linearGradient>
        <rect id="path-2" x="473" y="0" width="166" height="43" rx="8"></rect>
        <mask id="mask-3" maskContentUnits="userSpaceOnUse" maskUnits="objectBoundingBox" x="0" y="0" width="166" height="43" fill="white">
            <use xlink:href="#path-2"></use>
        </mask>
        <rect id="path-4" x="792" y="31" width="166" height="43" rx="8"></rect>
        <mask id="mask-5" maskContentUnits="userSpaceOnUse" maskUnits="objectBoundingBox" x="0" y="0" width="166" height="43" fill="white">
            <use xlink:href="#path-4"></use>
        </mask>
        <rect id="path-6" x="980" y="154" width="166" height="43" rx="8"></rect>
        <mask id="mask-7" maskContentUnits="userSpaceOnUse" maskUnits="objectBoundingBox" x="0" y="0" width="166" height="43" fill="white">
            <use xlink:href="#path-6"></use>
        </mask>
        <rect id="path-8" x="980" y="356" width="166" height="43" rx="8"></rect>
        <mask id="mask-9" maskContentUnits="userSpaceOnUse" maskUnits="objectBoundingBox" x="0" y="0" width="166" height="43" fill="white">
            <use xlink:href="#path-8"></use>
        </mask>
        <rect id="path-10" x="1181" y="356" width="166" height="43" rx="8"></rect>
        <mask id="mask-11" maskContentUnits="userSpaceOnUse" maskUnits="objectBoundingBox" x="0" y="0" width="166" height="43" fill="white">
            <use xlink:href="#path-10"></use>
        </mask>
        <rect id="path-12" x="885" y="261" width="166" height="43" rx="8"></rect>
        <mask id="mask-13" maskContentUnits="userSpaceOnUse" maskUnits="objectBoundingBox" x="0" y="0" width="166" height="43" fill="white">
            <use xlink:href="#path-12"></use>
        </mask>
        <rect id="path-14" x="186" y="155" width="166" height="43" rx="8"></rect>
        <mask id="mask-15" maskContentUnits="userSpaceOnUse" maskUnits="objectBoundingBox" x="0" y="0" width="166" height="43" fill="white">
            <use xlink:href="#path-14"></use>
        </mask>
        <rect id="path-16" x="699" y="445" width="166" height="43" rx="8"></rect>
        <mask id="mask-17" maskContentUnits="userSpaceOnUse" maskUnits="objectBoundingBox" x="0" y="0" width="166" height="43" fill="white">
            <use xlink:href="#path-16"></use>
        </mask>
        <rect id="path-18" x="572" y="155" width="166" height="43" rx="8"></rect>
        <mask id="mask-19" maskContentUnits="userSpaceOnUse" maskUnits="objectBoundingBox" x="0" y="0" width="166" height="43" fill="white">
            <use xlink:href="#path-18"></use>
        </mask>
        <rect id="path-20" x="572" y="268" width="166" height="43" rx="8"></rect>
        <mask id="mask-21" maskContentUnits="userSpaceOnUse" maskUnits="objectBoundingBox" x="0" y="0" width="166" height="43" fill="white">
            <use xlink:href="#path-20"></use>
        </mask>
        <rect id="path-22" x="0" y="155" width="166" height="43" rx="8"></rect>
        <mask id="mask-23" maskContentUnits="userSpaceOnUse" maskUnits="objectBoundingBox" x="0" y="0" width="166" height="43" fill="white">
            <use xlink:href="#path-22"></use>
        </mask>
        <rect id="path-24" x="770" y="154" width="166" height="43" rx="8"></rect>
        <mask id="mask-25" maskContentUnits="userSpaceOnUse" maskUnits="objectBoundingBox" x="0" y="0" width="166" height="43" fill="white">
            <use xlink:href="#path-24"></use>
        </mask>
        <rect id="path-26" x="881" y="442" width="166" height="43" rx="8"></rect>
        <mask id="mask-27" maskContentUnits="userSpaceOnUse" maskUnits="objectBoundingBox" x="0" y="0" width="166" height="43" fill="white">
            <use xlink:href="#path-26"></use>
        </mask>
        <rect id="path-28" x="372" y="155" width="166" height="43" rx="8"></rect>
        <mask id="mask-29" maskContentUnits="userSpaceOnUse" maskUnits="objectBoundingBox" x="0" y="0" width="166" height="43" fill="white">
            <use xlink:href="#path-28"></use>
        </mask>
        <rect id="path-30" x="1075" y="261" width="166" height="43" rx="8"></rect>
        <mask id="mask-31" maskContentUnits="userSpaceOnUse" maskUnits="objectBoundingBox" x="0" y="0" width="166" height="43" fill="white">
            <use xlink:href="#path-30"></use>
        </mask>
        <rect id="path-32" x="699" y="575" width="166" height="43" rx="8"></rect>
        <mask id="mask-33" maskContentUnits="userSpaceOnUse" maskUnits="objectBoundingBox" x="0" y="0" width="166" height="43" fill="white">
            <use xlink:href="#path-32"></use>
        </mask>
        <rect id="path-34" x="881" y="575" width="166" height="43" rx="8"></rect>
        <mask id="mask-35" maskContentUnits="userSpaceOnUse" maskUnits="objectBoundingBox" x="0" y="0" width="166" height="43" fill="white">
            <use xlink:href="#path-34"></use>
        </mask>
        <rect id="path-36" x="1072" y="575" width="182" height="43" rx="8"></rect>
        <mask id="mask-37" maskContentUnits="userSpaceOnUse" maskUnits="objectBoundingBox" x="0" y="0" width="182" height="43" fill="white">
            <use xlink:href="#path-36"></use>
        </mask>
        <rect id="path-38" x="186" y="265" width="166" height="43" rx="8"></rect>
        <mask id="mask-39" maskContentUnits="userSpaceOnUse" maskUnits="objectBoundingBox" x="0" y="0" width="166" height="43" fill="white">
            <use xlink:href="#path-38"></use>
        </mask>
    </defs>
    <g id="Page-1" stroke="none" stroke-width="1" fill="none" fill-rule="evenodd">
        <path d="M967.5,466.5 L1152.5,593.5" id="Line" stroke="#979797" stroke-linecap="square"></path>
        <path d="M967.5,466.5 L780.5,596.5" id="Line" stroke="#979797" stroke-linecap="square"></path>
        <path d="M266.5,177.5 L266.5,301.5" id="Line" stroke="#979797" stroke-linecap="square"></path>
        <path d="M1158.5,284.5 L1065.5,377.5" id="Line" stroke="#979797" stroke-linecap="square"></path>
        <path d="M1060.5,179.5 L966.5,283.5" id="Line" stroke="#979797" stroke-linecap="square"></path>
        <path d="M1060.5,179.5 L1158.5,282.5" id="Line" stroke="#979797" stroke-linecap="square"></path>
        <path d="M1158.5,284.5 L1262.5,375.5" id="Line" stroke="#979797" stroke-linecap="square"></path>
        <path d="M553.5,22.5 L83.5,169.5" id="Line" stroke="#979797" stroke-linecap="square"></path>
        <path d="M553.5,22.5 L457.5,175.5" id="Line" stroke="#979797" stroke-linecap="square"></path>
        <path d="M553.5,22.5 L650.5,175.5" id="Line" stroke="#979797" stroke-linecap="square"></path>
        <path d="M553.5,22.5 L854.5,172.5" id="Line" stroke="#979797" stroke-linecap="square"></path>
        <path d="M553.5,22.5 L1055.5,169.5" id="Line" stroke="#979797" stroke-linecap="square"></path>
        <path d="M553.5,22.5 L267.5,169.5" id="Line" stroke="#979797" stroke-linecap="square"></path>
        <path d="M653.5,179.5 L653.5,290.5" id="Line" stroke="#979797" stroke-linecap="square"></path>
        <path d="M963.5,289.5 L963.5,596.5" id="Line" stroke="#979797" stroke-linecap="square"></path>
        <path d="M963.5,289.5 L782.5,464.5" id="Line" stroke="#979797" stroke-linecap="square"></path>
        <use id="Rectangle-1" stroke="#979797" mask="url(#mask-3)" stroke-width="2" fill="url(#linearGradient-1)" xlink:href="#path-2"></use>
        <use id="Rectangle-1" stroke="#979797" mask="url(#mask-5)" stroke-width="2" fill="url(#linearGradient-1)" xlink:href="#path-4"></use>
        <use id="Rectangle-1" stroke="#979797" mask="url(#mask-7)" stroke-width="2" fill="url(#linearGradient-1)" xlink:href="#path-6"></use>
        <use id="Rectangle-1" stroke="#979797" mask="url(#mask-9)" stroke-width="2" fill="url(#linearGradient-1)" xlink:href="#path-8"></use>
        <g id="Rectangle-1-Copy-2" stroke="#979797">
            <use mask="url(#mask-11)" stroke-width="2" fill="url(#linearGradient-1)" fill-rule="evenodd" xlink:href="#path-10"></use>
            <use stroke-width="1" xlink:href="#path-10"></use>
        </g>
        <use id="Rectangle-1-Copy" stroke="#979797" mask="url(#mask-13)" stroke-width="2" fill="url(#linearGradient-1)" xlink:href="#path-12"></use>
        <use id="Rectangle-1-Copy" stroke="#979797" mask="url(#mask-15)" stroke-width="2" fill="url(#linearGradient-1)" xlink:href="#path-14"></use>
        <use id="Rectangle-1-Copy-4" stroke="#979797" mask="url(#mask-17)" stroke-width="2" fill="url(#linearGradient-1)" xlink:href="#path-16"></use>
        <use id="Rectangle-1-Copy-5" stroke="#979797" mask="url(#mask-19)" stroke-width="2" fill="url(#linearGradient-1)" xlink:href="#path-18"></use>
        <use id="Rectangle-1-Copy-5" stroke="#979797" mask="url(#mask-21)" stroke-width="2" fill="url(#linearGradient-1)" xlink:href="#path-20"></use>
        <use id="Rectangle-1-Copy-6" stroke="#979797" mask="url(#mask-23)" stroke-width="2" fill="url(#linearGradient-1)" xlink:href="#path-22"></use>
        <use id="Rectangle-1-Copy-7" stroke="#979797" mask="url(#mask-25)" stroke-width="2" fill="url(#linearGradient-1)" xlink:href="#path-24"></use>
        <use id="Rectangle-1-Copy-8" stroke="#979797" mask="url(#mask-27)" stroke-width="2" fill="url(#linearGradient-1)" xlink:href="#path-26"></use>
        <use id="Rectangle-1-Copy-3" stroke="#979797" mask="url(#mask-29)" stroke-width="2" fill="url(#linearGradient-1)" xlink:href="#path-28"></use>
        <text id="RDFSource" font-family="Helvetica" font-size="16" font-weight="normal" fill="#000000">
            <tspan x="514.210938" y="27">RDFSource</tspan>
        </text>
        <text id="AccessControlList" font-family="Helvetica" font-size="16" font-weight="normal" fill="#000000">
            <tspan x="816.976562" y="58">AccessControlList</tspan>
        </text>
        <text id="Container" font-family="Helvetica" font-size="16" font-weight="normal" fill="#000000">
            <tspan x="1027.8125" y="181">Container</tspan>
        </text>
        <text id="BasicContainer" font-family="Helvetica" font-size="16" font-weight="normal" fill="#000000">
            <tspan x="913.25" y="288">BasicContainer</tspan>
        </text>
        <text id="DirectContainer" font-family="Helvetica" font-size="16" font-weight="normal" fill="#000000">
            <tspan x="1007.42188" y="383">DirectContainer</tspan>
        </text>
        <use id="Rectangle-1" stroke="#979797" mask="url(#mask-31)" stroke-width="2" fill="url(#linearGradient-1)" xlink:href="#path-30"></use>
        <text id="AccessPoint" font-family="Helvetica" font-size="16" font-weight="normal" fill="#000000">
            <tspan x="1114.48047" y="288">AccessPoint</tspan>
        </text>
        <text id="IndirectContainer" font-family="Helvetica" font-size="16" font-weight="normal" fill="#7B7B7B">
            <tspan x="1203.07812" y="383">IndirectContainer</tspan>
        </text>
        <text id="Application" font-family="Helvetica" font-size="16" font-weight="normal" fill="#000000">
            <tspan x="743.363281" y="472">Application</tspan>
        </text>
        <text id="Agent" font-family="Helvetica" font-size="16" font-weight="normal" fill="#000000">
            <tspan x="248.09375" y="182">Agent</tspan>
        </text>
        <text id="AppRole" font-family="Helvetica" font-size="16" font-weight="normal" fill="#000000">
            <tspan x="424.8125" y="182">AppRole</tspan>
        </text>
        <use id="Rectangle-1-Copy-6" stroke="#979797" mask="url(#mask-33)" stroke-width="2" fill="url(#linearGradient-1)" xlink:href="#path-32"></use>
        <use id="Rectangle-1-Copy-6" stroke="#979797" mask="url(#mask-35)" stroke-width="2" fill="url(#linearGradient-1)" xlink:href="#path-34"></use>
        <use id="Rectangle-1-Copy-6" stroke="#979797" mask="url(#mask-37)" stroke-width="2" fill="url(#linearGradient-1)" xlink:href="#path-36"></use>
        <text id="Job" font-family="Helvetica" font-size="16" font-weight="normal" fill="#000000">
            <tspan x="951.101562" y="469">Job</tspan>
        </text>
        <text id="Execution" font-family="Helvetica" font-size="16" font-weight="normal" fill="#000000">
            <tspan x="819.367188" y="181">Execution</tspan>
        </text>
        <text id="LDAPServer" font-family="Helvetica" font-size="16" font-weight="normal" fill="#000000">
            <tspan x="42.0390625" y="182">LDAPServer</tspan>
        </text>
        <text id="LDAPServer" font-family="Helvetica" font-size="16" font-weight="normal" fill="#000000">
            <tspan x="42.0390625" y="182">LDAPServer</tspan>
        </text>
        <text id="RDFRepresentation" font-family="Helvetica" font-size="16" font-weight="normal" fill="#000000">
            <tspan x="584.300781" y="182">RDFRepresentation</tspan>
        </text>
        <text id="Backup" font-family="Helvetica" font-size="16" font-weight="normal" fill="#000000">
            <tspan x="628.316406" y="295">Backup</tspan>
        </text>
        <use id="Rectangle-1-Copy-5" stroke="#979797" mask="url(#mask-39)" stroke-width="2" fill="url(#linearGradient-1)" xlink:href="#path-38"></use>
        <text id="LDAPAgent" font-family="Helvetica" font-size="16" font-weight="normal" fill="#000000">
            <tspan x="227.285156" y="292">LDAPAgent</tspan>
        </text>
        <text id="ImportBackupJob" font-family="Helvetica" font-size="16" font-weight="normal" fill="#000000">
            <tspan x="720.246094" y="602">ImportBackupJob</tspan>
        </text>
        <text id="ExportBackupJob" font-family="Helvetica" font-size="16" font-weight="normal" fill="#000000">
            <tspan x="901.296875" y="602">ExportBackupJob</tspan>
        </text>
        <text id="ImportLDAPAgentsJob" font-family="Helvetica" font-size="16" font-weight="normal" fill="#000000">
            <tspan x="1082.21484" y="601">ImportLDAPAgentsJob</tspan>
        </text>
    </g>
</svg>
